X: 15718
T: Golden Slippers
R: reel
M: 4/4
K: Gmajor
|:GA|"G" B2 B2 BAGA|"G" B2 B2 BAGA|"G" B2 B2 c2 Bc|"D" B2 A2 A2 FG|
"D" A2 A2 AGFG|"D" A2 A2 AGFG|"D" A2 c2 B3 A|"G" A2 G2 G2:|
E2|"G" D6 G2|"G" B2 A2 G2 F2|"Am" E6 G2|"C" c2 B2 "Am" A2 E2|
"D" F3 F F2 G2|"D" A3 A A2 F2|"G" G3 F G2 A2|"G" B2 G2 "D7" F2 E2|
"G" D6 G2|"G" B2 A2 G2 F2|"Am" E6 G2|"C" c2 B2 "Am" A2 E2|
"D" F3 F F2 G2|"D" A3 A A2 c2|"D7" B3 c B2 A2|"G" G6||

